X: 1
T: The Wandering Minstrel
R: jig
M: 6/8
L: 1/8
K: Dmaj
|:B|ADD BAF|Ade fdB|ADD BAG|F3 GFE|
ADD BAF|Ade fdB|AdB AFE|FDD D2:|
|:e|faf ede|fdB AFA|BdB AGF|GFG E2e|
faf ede|fdB AFA|BdB AFE|FDD D2:|
|:e|f3 afd|gbe gbe|f3 afd|ceA ceA|
f3 afd|gbe gbe|fga efg|fdc d2:|


Tune 2025	Setting 28885

